src/assets/outline/Windows.svg

<svg width="24" height="24" viewBox="0 0 24 24"  xmlns="http://www.w3.org/2000/svg">
<path d="M22 11.7493H12C11.59 11.7493 11.25 11.4093 11.25 10.9993V3.99931C11.25 3.63931 11.5 3.32932 11.85 3.25932L21.85 1.25932C22.07 1.21932 22.3 1.26932 22.47 1.41932C22.64 1.55932 22.74 1.77931 22.74 1.99931V10.9993C22.75 11.4093 22.41 11.7493 22 11.7493ZM12.75 10.2493H21.25V2.91932L12.75 4.6193V10.2493Z" />
<path d="M22 22.75C21.95 22.75 21.9 22.75 21.85 22.74L11.85 20.74C11.5 20.67 11.25 20.36 11.25 20V13C11.25 12.59 11.59 12.25 12 12.25H22C22.41 12.25 22.75 12.59 22.75 13V22C22.75 22.22 22.65 22.44 22.48 22.58C22.34 22.69 22.17 22.75 22 22.75ZM12.75 19.38L21.25 21.08V13.75H12.75V19.38Z" />
<path d="M10 11.7501H2C1.59 11.7501 1.25 11.4101 1.25 11.0001V6.00014C1.25 5.65014 1.50003 5.34013 1.84003 5.27013L9.84003 3.57015C10.06 3.52015 10.29 3.58014 10.47 3.72014C10.65 3.86014 10.75 4.08013 10.75 4.30013V11.0001C10.75 11.4101 10.41 11.7501 10 11.7501ZM2.75 10.2501H9.25V5.23015L2.75 6.61013V10.2501Z" />
<path d="M10 20.45C9.95 20.45 9.90003 20.44 9.84003 20.43L1.84003 18.73C1.49003 18.66 1.25 18.35 1.25 18V13C1.25 12.59 1.59 12.25 2 12.25H10C10.41 12.25 10.75 12.59 10.75 13V19.7C10.75 19.93 10.65 20.14 10.47 20.28C10.34 20.39 10.17 20.45 10 20.45ZM2.75 17.39L9.25 18.77V13.75H2.75V17.39Z" />
</svg>

<?xml version="1.0" encoding="UTF-8"?>
<svg width="24" height="24" viewBox="0 0 24 24" xmlns="http://www.w3.org/2000/svg">
 <path d="m22 11.749h-10c-0.41 0-0.75-0.34-0.75-0.75v-7c0-0.36 0.25-0.66999 0.6-0.73999l10-2c0.22-0.04 0.45 0.01 0.62 0.16 0.17 0.14 0.27 0.35999 0.27 0.57999v9c0.01 0.41-0.33 0.75-0.74 0.75zm-9.25-1.5h8.5v-7.33l-8.5 1.7v5.63z"/>
 <path d="m22 22.75c-0.05 0-0.1 0-0.15-0.01l-10-2c-0.35-0.07-0.6-0.38-0.6-0.74v-7c0-0.41 0.34-0.75 0.75-0.75h10c0.41 0 0.75 0.34 0.75 0.75v9c0 0.22-0.1 0.44-0.27 0.58-0.14 0.11-0.31 0.17-0.48 0.17zm-9.25-3.37 8.5 1.7v-7.33h-8.5v5.63z"/>
 <path d="m10 11.75h-8c-0.41 0-0.75-0.34-0.75-0.75v-5c0-0.35 0.25003-0.66001 0.59003-0.73001l8-1.7c0.21997-0.05 0.44997 0.00999 0.62997 0.14999s0.28 0.35999 0.28 0.57999v6.7c0 0.41-0.34 0.75-0.75 0.75zm-7.25-1.5h6.5v-5.02l-6.5 1.38v3.64z"/>
 <path d="m10 20.45c-0.05 0-0.09997-0.01-0.15997-0.02l-8-1.7c-0.35-0.07-0.59003-0.38-0.59003-0.73v-5c0-0.41 0.34-0.75 0.75-0.75h8c0.41 0 0.75 0.34 0.75 0.75v6.7c0 0.23-0.1 0.44-0.28 0.58-0.13 0.11-0.3 0.17-0.47 0.17zm-7.25-3.06 6.5 1.38v-5.02h-6.5v3.64z"/>
</svg>
